svgs/deviantart.svg

<svg width="192" height="192" viewBox="0 0 192 192" fill="none" xmlns="http://www.w3.org/2000/svg">
<path d="M99 54H54V82H87" stroke="black" stroke-width="12" stroke-linejoin="round"/>
<path d="M93 138H138V110H105" stroke="black" stroke-width="12" stroke-linejoin="round"/>
<path fill-rule="evenodd" clip-rule="evenodd" d="M110.616 19.351C111.626 17.2995 113.714 16 116 16H138C141.314 16 144 18.6863 144 22V43.9999C144 44.9184 143.789 45.8247 143.384 46.6489L109.258 116H95.8843L132 42.6036V28H119.735L103.989 60H90.6146L110.616 19.351ZM88.0113 132L72.2653 164H60V149.396L96.1156 76H82.7415L48.6165 145.351C48.2109 146.175 48 147.082 48 148V170C48 173.313 50.6863 176 54 176H76C78.2864 176 80.3741 174.7 81.3835 172.649L101.385 132H88.0113Z" fill="black"/>
</svg>

<svg width="192" height="192" viewBox="0 0 192 192" fill="none" xmlns="http://www.w3.org/2000/svg"><path d="M99 54H54v28h33M93 138h45v-28h-33" stroke="#000" stroke-width="12" stroke-linejoin="round"/><path fill-rule="evenodd" clip-rule="evenodd" d="M110.616 19.351A6.002 6.002 0 0 1 116 16h22a6 6 0 0 1 6 6v22c0 .918-.211 1.825-.616 2.649L109.258 116H95.884L132 42.604V28h-12.265l-15.746 32H90.615l20.001-40.649ZM88.011 132l-15.746 32H60v-14.604L96.116 76H82.742l-34.126 69.351A6 6 0 0 0 48 148v22a6 6 0 0 0 6 6h22a6 6 0 0 0 5.383-3.351L101.385 132H88.011Z" fill="#000"/></svg>
